; generated by PrusaSlicer 2.3.3 on 2021-09-10 at 06:56:30 UTC

; 

; external perimeters extrusion width = 0.60mm
; perimeters extrusion width = 0.50mm
; infill extrusion width = 0.50mm
; solid infill extrusion width = 0.50mm
; top infill extrusion width = 0.45mm
; first layer extrusion width = 0.42mm

M73 P0 R39
M73 Q0 S39
M201 X1000 Y1000 Z200 E5000 ; sets maximum accelerations, mm/sec^2
M203 X200 Y200 Z12 E120 ; sets maximum feedrates, mm/sec
M204 P1250 R1250 T1250 ; sets acceleration (P, T) and retract acceleration (R), mm/sec^2
M205 X8.00 Y8.00 Z0.40 E4.50 ; sets the jerk limits, mm/sec
M205 S0 T0 ; sets the minimum extruding and travel feed rate, mm/sec
M107
;TYPE:Custom
M862.3 P "MK3S" ; printer model check
M862.1 P0.4 ; nozzle diameter check
M115 U3.9.2 ; tell printer latest fw version
G90 ; use absolute coordinates
M83 ; extruder relative mode
M104 S240 ; set extruder temp
M140 S85 ; set bed temp
M190 S85 ; wait for bed temp
M109 S240 ; wait for extruder temp
G28 W ; home all without mesh bed level
G80 ; mesh bed leveling
G1 Y-3.0 F1000.0 ; go outside print area
G92 E0.0
G1 X60.0 E9.0 F1000.0 ; intro line
G1 X100.0 E12.5 F1000.0 ; intro line
G92 E0.0
M221 S95

; Don't change E values below. Excessive value can damage the printer.

M907 E538 ; set extruder motor current
G21 ; set units to millimeters
G90 ; use absolute coordinates
M83 ; use relative distances for extrusion
M900 K0.08 ; Filament gcode LA 1.5
M900 K45 ; Filament gcode LA 1.0
;LAYER_CHANGE
;Z:0.2
;HEIGHT:0.2
;BEFORE_LAYER_CHANGE
G92 E0.0
;0.2
;LAYER:0
G1 E-1.40000 F2100.000
G1 Z0.200 F10800.000
;AFTER_LAYER_CHANGE
;0.2
G1 Z0.400
G1 X100.203 Y95.760
G1 Z0.200
G1 E1.40000 F2100.000
M204 S1000
;TYPE:Skirt
;WIDTH:0.42
G1 F1200.000
G1 X100.991 Y95.623 E0.02508
G1 X147.004 Y95.623 E1.44269
G1 X147.892 Y95.797 E0.02837
G1 X148.648 Y96.287 E0.02825
G1 X149.167 Y97.023 E0.02825
G1 X149.375 Y97.900 E0.02825
G1 X149.366 Y112.228 E0.44925
G1 X149.208 Y112.881 E0.02107
G1 X148.873 Y113.464 E0.02107
G1 X148.388 Y113.929 E0.02107
G1 X147.797 Y114.240 E0.02095
G1 X147.009 Y114.377 E0.02508
G1 X100.931 Y114.376 E1.44472
G1 X100.233 Y114.250 E0.02225
G1 X99.600 Y113.921 E0.02237
G1 X99.095 Y113.422 E0.02225
G1 X98.760 Y112.797 E0.02225
G1 X98.623 Y112.020 E0.02473
G1 X98.631 Y97.798 E0.44591
G1 X98.784 Y97.140 E0.02119
G1 X99.118 Y96.548 E0.02130
G1 X99.602 Y96.077 E0.02119
G1 X100.150 Y95.788 E0.01942
; printing object tempTower-230-250-PETG.stl id:0 copy 0
;WIPE_START
G1 F8640.000
G1 X100.991 Y95.623 E-0.19792
G1 X105.894 Y95.623 E-1.13208
;WIPE_END
G1 E-0.07000 F2100.000
G1 Z0.400 F10800.000
G1 X101.787 Y98.787
G1 Z0.200
G1 E1.40000 F2100.000
;TYPE:Perimeter
G1 F1200.000
G1 X146.213 Y98.787 E1.39294
G1 X146.213 Y111.213 E0.38960
G1 X101.787 Y111.213 E1.39294
G1 X101.787 Y98.847 E0.38772
G1 X101.410 Y98.410 F10800.000
;TYPE:External perimeter
G1 F1200.000
G1 X146.590 Y98.410 E1.41659
G1 X146.590 Y111.590 E0.41325
G1 X101.410 Y111.590 E1.41659
M73 P1 R39
M73 Q1 S39
G1 X101.410 Y98.470 E0.41137
G1 X101.808 Y98.448 F10800.000
;WIPE_START
G1 F8640.000
G1 X107.170 Y98.462 E-1.33000
;WIPE_END
G1 E-0.07000 F2100.000
G1 Z0.400 F10800.000
G1 X145.331 Y98.900
G1 Z0.200
G1 E1.40000 F2100.000
;TYPE:Solid infill
;WIDTH:0.42324
G1 F1200.000
G1 X145.930 Y99.500 E0.02681
G1 X145.930 Y100.038 E0.01701
G1 X144.962 Y99.070 E0.04327
G1 X144.425 Y99.070 E0.01701
G1 X145.930 Y100.575 E0.06733
G1 X145.930 Y101.113 E0.01701
G1 X143.887 Y99.070 E0.09138
G1 X143.349 Y99.070 E0.01701
G1 X145.930 Y101.651 E0.11544
G1 X145.930 Y102.189 E0.01701
G1 X142.811 Y99.070 E0.13949
G1 X142.273 Y99.070 E0.01701
G1 X145.930 Y102.727 E0.16355
G1 X145.930 Y103.265 E0.01701
G1 X141.735 Y99.070 E0.18760
G1 X141.198 Y99.070 E0.01701
G1 X145.930 Y103.802 E0.21165
G1 X145.930 Y104.340 E0.01701
G1 X140.660 Y99.070 E0.23571
G1 X140.122 Y99.070 E0.01701
G1 X145.930 Y104.878 E0.25976
G1 X145.930 Y105.416 E0.01701
G1 X139.584 Y99.070 E0.28382
G1 X139.046 Y99.070 E0.01701
G1 X145.930 Y105.954 E0.30787
G1 X145.930 Y106.492 E0.01701
G1 X138.508 Y99.070 E0.33193
G1 X137.970 Y99.070 E0.01701
G1 X145.930 Y107.030 E0.35598
M73 P1 R38
G1 X145.930 Y107.567 E0.01701
G1 X137.433 Y99.070 E0.38003
G1 X136.895 Y99.070 E0.01701
G1 X145.930 Y108.105 E0.40409
G1 X145.930 Y108.643 E0.01701
G1 X136.357 Y99.070 E0.42814
G1 X135.819 Y99.070 E0.01701
G1 X145.930 Y109.181 E0.45220
G1 X145.930 Y109.719 E0.01701
G1 X135.281 Y99.070 E0.47625
G1 X134.743 Y99.070 E0.01701
G1 X145.930 Y110.257 E0.50031
G1 X145.930 Y110.795 E0.01701
G1 X134.205 Y99.070 E0.52436
G1 X133.668 Y99.070 E0.01701
G1 X145.528 Y110.930 E0.53042
G1 X144.990 Y110.930 E0.01701
G1 X133.130 Y99.070 E0.53042
G1 X132.592 Y99.070 E0.01701
G1 X144.452 Y110.930 E0.53042
G1 X143.914 Y110.930 E0.01701
G1 X132.054 Y99.070 E0.53042
G1 X131.516 Y99.070 E0.01701
G1 X143.376 Y110.930 E0.53042
G1 X142.839 Y110.930 E0.01701
G1 X130.978 Y99.070 E0.53042
G1 X130.440 Y99.070 E0.01701
G1 X142.301 Y110.930 E0.53042
G1 X141.763 Y110.930 E0.01701
G1 X129.903 Y99.070 E0.53042
G1 X129.365 Y99.070 E0.01701
G1 X141.225 Y110.930 E0.53042
G1 X140.687 Y110.930 E0.01701
G1 X128.827 Y99.070 E0.53042
G1 X128.289 Y99.070 E0.01701
G1 X140.149 Y110.930 E0.53042
G1 X139.611 Y110.930 E0.01701
G1 X127.751 Y99.070 E0.53042
M73 P2 R38
M73 Q2 S38
G1 X127.213 Y99.070 E0.01701
G1 X139.074 Y110.930 E0.53042
G1 X138.536 Y110.930 E0.01701
G1 X126.675 Y99.070 E0.53042
G1 X126.138 Y99.070 E0.01701
G1 X137.998 Y110.930 E0.53042
G1 X137.460 Y110.930 E0.01701
G1 X125.600 Y99.070 E0.53042
G1 X125.062 Y99.070 E0.01701
G1 X136.922 Y110.930 E0.53042
G1 X136.384 Y110.930 E0.01701
G1 X124.524 Y99.070 E0.53042
G1 X123.986 Y99.070 E0.01701
G1 X135.846 Y110.930 E0.53042
G1 X135.309 Y110.930 E0.01701
G1 X123.448 Y99.070 E0.53042
G1 X122.910 Y99.070 E0.01701
G1 X134.771 Y110.930 E0.53042
G1 X134.233 Y110.930 E0.01701
G1 X122.373 Y99.070 E0.53042
G1 X121.835 Y99.070 E0.01701
G1 X133.695 Y110.930 E0.53042
G1 X133.157 Y110.930 E0.01701
G1 X121.297 Y99.070 E0.53042
G1 X120.759 Y99.070 E0.01701
G1 X132.619 Y110.930 E0.53042
G1 X132.081 Y110.930 E0.01701
G1 X120.221 Y99.070 E0.53042
G1 X119.683 Y99.070 E0.01701
G1 X131.544 Y110.930 E0.53042
G1 X131.006 Y110.930 E0.01701
G1 X119.146 Y99.070 E0.53042
G1 X118.608 Y99.070 E0.01701
G1 X130.468 Y110.930 E0.53042
G1 X129.930 Y110.930 E0.01701
G1 X118.070 Y99.070 E0.53042
G1 X117.532 Y99.070 E0.01701
G1 X129.392 Y110.930 E0.53042
G1 X128.854 Y110.930 E0.01701
G1 X116.994 Y99.070 E0.53042
G1 X116.456 Y99.070 E0.01701
G1 X128.316 Y110.930 E0.53042
G1 X127.779 Y110.930 E0.01701
G1 X115.918 Y99.070 E0.53042
G1 X115.381 Y99.070 E0.01701
G1 X127.241 Y110.930 E0.53042
G1 X126.703 Y110.930 E0.01701
G1 X114.843 Y99.070 E0.53042
G1 X114.305 Y99.070 E0.01701
G1 X126.165 Y110.930 E0.53042
G1 X125.627 Y110.930 E0.01701
G1 X113.767 Y99.070 E0.53042
M73 P3 R38
M73 Q3 S38
G1 X113.229 Y99.070 E0.01701
G1 X125.089 Y110.930 E0.53042
G1 X124.552 Y110.930 E0.01701
G1 X112.691 Y99.070 E0.53042
G1 X112.153 Y99.070 E0.01701
G1 X124.014 Y110.930 E0.53042
G1 X123.476 Y110.930 E0.01701
G1 X111.616 Y99.070 E0.53042
G1 X111.078 Y99.070 E0.01701
G1 X122.938 Y110.930 E0.53042
G1 X122.400 Y110.930 E0.01701
G1 X110.540 Y99.070 E0.53042
G1 X110.002 Y99.070 E0.01701
G1 X121.862 Y110.930 E0.53042
G1 X121.324 Y110.930 E0.01701
G1 X109.464 Y99.070 E0.53042
G1 X108.926 Y99.070 E0.01701
G1 X120.787 Y110.930 E0.53042
G1 X120.249 Y110.930 E0.01701
G1 X108.388 Y99.070 E0.53042
G1 X107.851 Y99.070 E0.01701
G1 X119.711 Y110.930 E0.53042
G1 X119.173 Y110.930 E0.01701
G1 X107.313 Y99.070 E0.53042
G1 X106.775 Y99.070 E0.01701
G1 X118.635 Y110.930 E0.53042
G1 X118.097 Y110.930 E0.01701
G1 X106.237 Y99.070 E0.53042
G1 X105.699 Y99.070 E0.01701
G1 X117.559 Y110.930 E0.53042
G1 X117.022 Y110.930 E0.01701
G1 X105.161 Y99.070 E0.53042
G1 X104.623 Y99.070 E0.01701
G1 X116.484 Y110.930 E0.53042
G1 X115.946 Y110.930 E0.01701
G1 X104.086 Y99.070 E0.53042
G1 X103.548 Y99.070 E0.01701
G1 X115.408 Y110.930 E0.53042
G1 X114.870 Y110.930 E0.01701
G1 X103.010 Y99.070 E0.53042
G1 X102.472 Y99.070 E0.01701
G1 X114.332 Y110.930 E0.53042
G1 X113.794 Y110.930 E0.01701
G1 X102.070 Y99.206 E0.52435
G1 X102.070 Y99.743 E0.01701
G1 X113.257 Y110.930 E0.50030
G1 X112.719 Y110.930 E0.01701
G1 X102.070 Y100.281 E0.47625
G1 X102.070 Y100.819 E0.01701
G1 X112.181 Y110.930 E0.45219
M73 P3 R37
G1 X111.643 Y110.930 E0.01701
G1 X102.070 Y101.357 E0.42814
G1 X102.070 Y101.895 E0.01701
G1 X111.105 Y110.930 E0.40408
G1 X110.567 Y110.930 E0.01701
G1 X102.070 Y102.433 E0.38003
M73 P4 R37
M73 Q4 S38
G1 X102.070 Y102.971 E0.01701
G1 X110.029 Y110.930 E0.35597
G1 X109.492 Y110.930 E0.01701
G1 X102.070 Y103.508 E0.33192
G1 X102.070 Y104.046 E0.01701
G1 X108.954 Y110.930 E0.30787
G1 X108.416 Y110.930 E0.01701
G1 X102.070 Y104.584 E0.28381
G1 X102.070 Y105.122 E0.01701
G1 X107.878 Y110.930 E0.25976
G1 X107.340 Y110.930 E0.01701
G1 X102.070 Y105.660 E0.23570
G1 X102.070 Y106.198 E0.01701
G1 X106.802 Y110.930 E0.21165
G1 X106.264 Y110.930 E0.01701
G1 X102.070 Y106.736 E0.18759
G1 X102.070 Y107.273 E0.01701
G1 X105.727 Y110.930 E0.16354
G1 X105.189 Y110.930 E0.01701
G1 X102.070 Y107.811 E0.13949
G1 X102.070 Y108.349 E0.01701
G1 X104.651 Y110.930 E0.11543
G1 X104.113 Y110.930 E0.01701
G1 X102.070 Y108.887 E0.09138
G1 X102.070 Y109.425 E0.01701
G1 X103.575 Y110.930 E0.06732
G1 X103.037 Y110.930 E0.01701
G1 X102.070 Y109.963 E0.04327
G1 X102.070 Y110.500 E0.01701
G1 X102.669 Y111.100 E0.02680
; stop printing object tempTower-230-250-PETG.stl id:0 copy 0
;LAYER_CHANGE
;Z:0.5
;HEIGHT:0.3
;BEFORE_LAYER_CHANGE
G92 E0.0
;0.5
;LAYER:1
;WIPE_START
G1 F8640.000
G1 X102.070 Y110.500 E-0.19571
G1 X102.070 Y109.963 E-0.12419
G1 X103.037 Y110.930 E-0.31593
G1 X103.575 Y110.930 E-0.12419
G1 X102.070 Y109.425 E-0.49156
G1 X102.070 Y109.085 E-0.07841
;WIPE_END
G1 E-0.07000 F2100.000
G1 Z0.400 F10800.000
G1 Z0.500
;AFTER_LAYER_CHANGE
;0.5
M104 S250 ; set temperature
M140 S90 ; set bed temperature
G1 Z0.700
G1 X98.760 Y112.797
G1 Z0.500
G1 E1.40000 F2100.000
;TYPE:Skirt
;WIDTH:0.42
G1 F2700.000
G1 X98.623 Y112.020 E0.03498
G1 X98.631 Y97.798 E0.63080
G1 X98.784 Y97.140 E0.02997
G1 X99.118 Y96.548 E0.03014
G1 X99.602 Y96.077 E0.02997
G1 X100.203 Y95.760 E0.03014
G1 X100.991 Y95.623 E0.03548
G1 X147.004 Y95.623 E2.04088
G1 X147.892 Y95.797 E0.04013
G1 X148.648 Y96.287 E0.03997
G1 X149.167 Y97.023 E0.03997
G1 X149.375 Y97.900 E0.03997
G1 X149.366 Y112.228 E0.63553
G1 X149.208 Y112.881 E0.02980
G1 X148.873 Y113.464 E0.02980
G1 X148.388 Y113.929 E0.02980
G1 X147.797 Y114.240 E0.02964
G1 X147.009 Y114.377 E0.03548
G1 X100.931 Y114.376 E2.04375
G1 X100.233 Y114.250 E0.03148
G1 X99.600 Y113.921 E0.03164
G1 X99.095 Y113.422 E0.03148
G1 X98.789 Y112.850 E0.02881
; printing object tempTower-230-250-PETG.stl id:0 copy 0
;WIPE_START
G1 F8640.000
G1 X98.623 Y112.020 E-0.19531
G1 X98.626 Y107.106 E-1.13469
;WIPE_END
G1 E-0.07000 F2100.000
G1 Z0.700 F10800.000
G1 X101.786 Y111.214
G1 Z0.500
G1 E1.40000 F2100.000
M204 S800
;TYPE:Perimeter
;WIDTH:0.5
G1 F3000.000
G1 X101.786 Y98.786 E0.67529
G1 X146.214 Y98.786 E2.41394
G1 X146.214 Y111.214 E0.67529
G1 X101.846 Y111.214 E2.41068
M204 S1000
G1 X101.300 Y111.700 F10800.000
M204 S800
;TYPE:External perimeter
;WIDTH:0.6
G1 F2100.000
G1 X101.300 Y98.300 E0.89519
G1 X146.700 Y98.300 E3.03297
M73 Q4 S37
G1 X146.700 Y111.700 E0.89519
G1 X101.360 Y111.700 E3.02896
M204 S1000
G1 X101.466 Y111.336 F10800.000
;WIPE_START
G1 F8640.000
G1 X101.334 Y105.940 E-1.33000
;WIPE_END
G1 E-0.07000 F2100.000
G1 Z0.700 F10800.000
G1 X145.197 Y111.084
G1 Z0.500
G1 E1.40000 F2100.000
;TYPE:Solid infill
;WIDTH:0.502801
G1 F3649.469
G1 X145.888 Y110.393 E0.05340
G1 X145.888 Y109.773 E0.03390
G1 X144.773 Y110.888 E0.08619
G1 X144.153 Y110.888 E0.03390
G1 X145.888 Y109.153 E0.13413
G1 X145.888 Y108.533 E0.03390
G1 X143.533 Y110.888 E0.18208
G1 X142.913 Y110.888 E0.03390
G1 X145.888 Y107.913 E0.23003
G1 X145.888 Y107.293 E0.03390
G1 X142.293 Y110.888 E0.27798
G1 X141.673 Y110.888 E0.03390
G1 X145.888 Y106.673 E0.32592
G1 X145.888 Y106.053 E0.03390
G1 X141.053 Y110.888 E0.37387
G1 X140.433 Y110.888 E0.03390
G1 X145.888 Y105.433 E0.42182
G1 X145.888 Y104.813 E0.03390
G1 X139.813 Y110.888 E0.46977
G1 X139.193 Y110.888 E0.03390
G1 X145.888 Y104.193 E0.51771
G1 X145.888 Y103.573 E0.03390
G1 X138.573 Y110.888 E0.56566
G1 X137.953 Y110.888 E0.03390
G1 X145.888 Y102.953 E0.61361
G1 X145.888 Y102.333 E0.03390
G1 X137.333 Y110.888 E0.66156
G1 X136.713 Y110.888 E0.03390
G1 X145.888 Y101.713 E0.70950
G1 X145.888 Y101.093 E0.03390
G1 X136.093 Y110.888 E0.75745
G1 X135.473 Y110.888 E0.03390
G1 X145.888 Y100.473 E0.80540
G1 X145.888 Y99.853 E0.03390
G1 X134.853 Y110.888 E0.85335
G1 X134.233 Y110.888 E0.03390
G1 X145.888 Y99.233 E0.90129
G1 X145.888 Y99.112 E0.00659
G1 X145.388 Y99.112 E0.02731
G1 X133.613 Y110.888 E0.91061
G1 X132.993 Y110.888 E0.03390
G1 X144.768 Y99.112 E0.91061
G1 X144.148 Y99.112 E0.03390
G1 X132.373 Y110.888 E0.91061
G1 X131.753 Y110.888 E0.03390
G1 X143.528 Y99.112 E0.91061
G1 X142.908 Y99.112 E0.03390
G1 X131.133 Y110.888 E0.91061
G1 X130.513 Y110.888 E0.03390
G1 X142.288 Y99.112 E0.91061
G1 X141.668 Y99.112 E0.03390
G1 X129.893 Y110.888 E0.91061
G1 X129.273 Y110.888 E0.03390
G1 X141.048 Y99.112 E0.91061
G1 X140.428 Y99.112 E0.03390
G1 X128.653 Y110.888 E0.91061
M73 P5 R37
G1 X128.033 Y110.888 E0.03390
G1 X139.808 Y99.112 E0.91061
M73 Q5 S37
G1 X139.188 Y99.112 E0.03390
G1 X127.413 Y110.888 E0.91061
G1 X126.793 Y110.888 E0.03390
G1 X138.568 Y99.112 E0.91061
G1 X137.948 Y99.112 E0.03390
G1 X126.173 Y110.888 E0.91061
G1 X125.553 Y110.888 E0.03390
G1 X137.328 Y99.112 E0.91061
G1 X136.708 Y99.112 E0.03390
G1 X124.933 Y110.888 E0.91061
G1 X124.313 Y110.888 E0.03390
G1 X136.088 Y99.112 E0.91061
G1 X135.468 Y99.112 E0.03390
G1 X123.692 Y110.888 E0.91061
G1 X123.072 Y110.888 E0.03390
G1 X134.848 Y99.112 E0.91061
G1 X134.228 Y99.112 E0.03390
G1 X122.452 Y110.888 E0.91061
G1 X121.832 Y110.888 E0.03390
G1 X133.608 Y99.112 E0.91061
G1 X132.988 Y99.112 E0.03390
G1 X121.212 Y110.888 E0.91061
G1 X120.592 Y110.888 E0.03390
G1 X132.368 Y99.112 E0.91061
G1 X131.748 Y99.112 E0.03390
G1 X119.972 Y110.888 E0.91061
G1 X119.352 Y110.888 E0.03390
G1 X131.128 Y99.112 E0.91061
G1 X130.508 Y99.112 E0.03390
G1 X118.732 Y110.888 E0.91061
G1 X118.112 Y110.888 E0.03390
G1 X129.888 Y99.112 E0.91061
G1 X129.268 Y99.112 E0.03390
G1 X117.492 Y110.888 E0.91061
G1 X116.872 Y110.888 E0.03390
G1 X128.648 Y99.112 E0.91061
G1 X128.028 Y99.112 E0.03390
G1 X116.252 Y110.888 E0.91061
G1 X115.632 Y110.888 E0.03390
G1 X127.408 Y99.112 E0.91061
G1 X126.788 Y99.112 E0.03390
G1 X115.012 Y110.888 E0.91061
G1 X114.392 Y110.888 E0.03390
G1 X126.168 Y99.112 E0.91061
G1 X125.548 Y99.112 E0.03390
G1 X113.772 Y110.888 E0.91061
G1 X113.152 Y110.888 E0.03390
G1 X124.928 Y99.112 E0.91061
G1 X124.307 Y99.112 E0.03390
G1 X112.532 Y110.888 E0.91061
G1 X111.912 Y110.888 E0.03390
G1 X123.687 Y99.112 E0.91061
G1 X123.067 Y99.112 E0.03390
G1 X111.292 Y110.888 E0.91061
G1 X110.672 Y110.888 E0.03390
G1 X122.447 Y99.112 E0.91061
G1 X121.827 Y99.112 E0.03390
G1 X110.052 Y110.888 E0.91061
G1 X109.432 Y110.888 E0.03390
G1 X121.207 Y99.112 E0.91061
G1 X120.587 Y99.112 E0.03390
G1 X108.812 Y110.888 E0.91061
G1 X108.192 Y110.888 E0.03390
G1 X119.967 Y99.112 E0.91061
G1 X119.347 Y99.112 E0.03390
G1 X107.572 Y110.888 E0.91061
G1 X106.952 Y110.888 E0.03390
G1 X118.727 Y99.112 E0.91061
G1 X118.107 Y99.112 E0.03390
G1 X106.332 Y110.888 E0.91061
G1 X105.712 Y110.888 E0.03390
G1 X117.487 Y99.112 E0.91061
G1 X116.867 Y99.112 E0.03390
G1 X105.092 Y110.888 E0.91061
G1 X104.472 Y110.888 E0.03390
G1 X116.247 Y99.112 E0.91061
G1 X115.627 Y99.112 E0.03390
G1 X103.852 Y110.888 E0.91061
G1 X103.232 Y110.888 E0.03390
G1 X115.007 Y99.112 E0.91061
G1 X114.387 Y99.112 E0.03390
G1 X102.612 Y110.888 E0.91061
G1 X102.112 Y110.888 E0.02731
G1 X102.112 Y110.767 E0.00659
G1 X113.767 Y99.112 E0.90129
G1 X113.147 Y99.112 E0.03390
G1 X102.112 Y110.147 E0.85335
G1 X102.112 Y109.527 E0.03390
G1 X112.527 Y99.112 E0.80540
G1 X111.907 Y99.112 E0.03390
