; generated by PrusaSlicer 2.3.3 on 2021-09-10 at 07:24:29 UTC

; 

; external perimeters extrusion width = 0.45mm
; perimeters extrusion width = 0.45mm
; infill extrusion width = 0.45mm
; solid infill extrusion width = 0.45mm
; top infill extrusion width = 0.40mm
; first layer extrusion width = 0.42mm

M73 P0 R60
M73 Q0 S60
M201 X1000 Y1000 Z200 E5000 ; sets maximum accelerations, mm/sec^2
M203 X200 Y200 Z12 E120 ; sets maximum feedrates, mm/sec
M204 P1250 R1250 T1250 ; sets acceleration (P, T) and retract acceleration (R), mm/sec^2
M205 X8.00 Y8.00 Z0.40 E4.50 ; sets the jerk limits, mm/sec
M205 S0 T0 ; sets the minimum extruding and travel feed rate, mm/sec
M107
;TYPE:Custom
M862.3 P "MK3S" ; printer model check
M862.1 P0.4 ; nozzle diameter check
M115 U3.9.2 ; tell printer latest fw version
G90 ; use absolute coordinates
M83 ; extruder relative mode
M104 S240 ; set extruder temp
M140 S85 ; set bed temp
M190 S85 ; wait for bed temp
M109 S240 ; wait for extruder temp
G28 W ; home all without mesh bed level
G80 ; mesh bed leveling
G1 Y-3.0 F1000.0 ; go outside print area
G92 E0.0
G1 X60.0 E9.0 F1000.0 ; intro line
G1 X100.0 E12.5 F1000.0 ; intro line
G92 E0.0
M221 S95

; Don't change E values below. Excessive value can damage the printer.

M907 E538 ; set extruder motor current
G21 ; set units to millimeters
G90 ; use absolute coordinates
M83 ; use relative distances for extrusion
M900 K0.08 ; Filament gcode LA 1.5
M900 K45 ; Filament gcode LA 1.0
;LAYER_CHANGE
;Z:0.2
;HEIGHT:0.2
;BEFORE_LAYER_CHANGE
G92 E0.0
;0.2
;LAYER:0
G1 E-1.40000 F2100.000
G1 Z0.200 F10800.000
;AFTER_LAYER_CHANGE
;0.2
G1 Z0.400
G1 X101.515 Y75.775
G1 Z0.200
G1 E1.40000 F2100.000
M204 S1000
;TYPE:Skirt
;WIDTH:0.42
G1 F1200.000
G1 X102.303 Y75.637 E0.02508
G1 X148.315 Y75.637 E1.44269
G1 X149.203 Y75.811 E0.02837
G1 X149.959 Y76.301 E0.02825
M73 P0 R59
G1 X150.479 Y77.038 E0.02825
G1 X150.686 Y77.914 E0.02825
G1 X150.678 Y92.243 E0.44925
G1 X150.519 Y92.896 E0.02107
G1 X150.184 Y93.478 E0.02107
G1 X149.700 Y93.944 E0.02107
G1 X149.108 Y94.254 E0.02095
G1 X148.320 Y94.392 E0.02508
G1 X102.243 Y94.391 E1.44472
G1 X101.545 Y94.264 E0.02225
G1 X100.911 Y93.936 E0.02237
G1 X100.407 Y93.437 E0.02225
G1 X100.072 Y92.811 E0.02225
G1 X99.934 Y92.035 E0.02473
G1 X99.943 Y77.813 E0.44591
G1 X100.095 Y77.155 E0.02119
G1 X100.429 Y76.563 E0.02130
G1 X100.914 Y76.092 E0.02119
G1 X101.462 Y75.803 E0.01942
; printing object tempTower-230-250-PETG.stl id:0 copy 0
;WIPE_START
G1 F8640.000
G1 X102.303 Y75.637 E-0.19792
G1 X107.206 Y75.637 E-1.13208
;WIPE_END
G1 E-0.07000 F2100.000
G1 Z0.400 F10800.000
G1 X103.099 Y78.802
G1 Z0.200
G1 E1.40000 F2100.000
;TYPE:Perimeter
G1 F1200.000
G1 X147.524 Y78.802 E1.39294
G1 X147.524 Y91.227 E0.38960
G1 X103.099 Y91.227 E1.39294
G1 X103.099 Y78.862 E0.38772
G1 X102.721 Y78.424 F10800.000
;TYPE:External perimeter
G1 F1200.000
G1 X147.901 Y78.424 E1.41659
G1 X147.901 Y91.604 E0.41325
G1 X102.721 Y91.604 E1.41659
G1 X102.721 Y78.484 E0.41137
G1 X103.120 Y78.462 F10800.000
;WIPE_START
G1 F8640.000
G1 X108.481 Y78.477 E-1.33000
;WIPE_END
G1 E-0.07000 F2100.000
G1 Z0.400 F10800.000
G1 X146.642 Y78.915
G1 Z0.200
G1 E1.40000 F2100.000
;TYPE:Solid infill
;WIDTH:0.42324
G1 F1200.000
G1 X147.242 Y79.514 E0.02681
G1 X147.242 Y80.052 E0.01701
G1 X146.274 Y79.084 E0.04327
G1 X145.736 Y79.084 E0.01701
G1 X147.242 Y80.590 E0.06733
G1 X147.242 Y81.128 E0.01701
G1 X145.198 Y79.084 E0.09138
G1 X144.660 Y79.084 E0.01701
G1 X147.242 Y81.666 E0.11544
G1 X147.242 Y82.203 E0.01701
G1 X144.123 Y79.084 E0.13949
G1 X143.585 Y79.084 E0.01701
G1 X147.242 Y82.741 E0.16355
G1 X147.242 Y83.279 E0.01701
G1 X143.047 Y79.084 E0.18760
G1 X142.509 Y79.084 E0.01701
G1 X147.242 Y83.817 E0.21165
G1 X147.242 Y84.355 E0.01701
G1 X141.971 Y79.084 E0.23571
G1 X141.433 Y79.084 E0.01701
G1 X147.242 Y84.893 E0.25976
G1 X147.242 Y85.431 E0.01701
G1 X140.895 Y79.084 E0.28382
G1 X140.358 Y79.084 E0.01701
G1 X147.242 Y85.968 E0.30787
G1 X147.242 Y86.506 E0.01701
G1 X139.820 Y79.084 E0.33193
G1 X139.282 Y79.084 E0.01701
G1 X147.242 Y87.044 E0.35598
G1 X147.242 Y87.582 E0.01701
G1 X138.744 Y79.084 E0.38003
G1 X138.206 Y79.084 E0.01701
G1 X147.242 Y88.120 E0.40409
G1 X147.242 Y88.658 E0.01701
G1 X137.668 Y79.084 E0.42814
G1 X137.130 Y79.084 E0.01701
G1 X147.242 Y89.196 E0.45220
M73 Q0 S59
G1 X147.242 Y89.733 E0.01701
G1 X136.593 Y79.084 E0.47625
G1 X136.055 Y79.084 E0.01701
G1 X147.242 Y90.271 E0.50031
M73 P1 R59
M73 Q1 S59
G1 X147.242 Y90.809 E0.01701
G1 X135.517 Y79.084 E0.52436
G1 X134.979 Y79.084 E0.01701
G1 X146.839 Y90.945 E0.53042
G1 X146.301 Y90.945 E0.01701
G1 X134.441 Y79.084 E0.53042
G1 X133.903 Y79.084 E0.01701
G1 X145.764 Y90.945 E0.53042
G1 X145.226 Y90.945 E0.01701
G1 X133.365 Y79.084 E0.53042
G1 X132.828 Y79.084 E0.01701
G1 X144.688 Y90.945 E0.53042
G1 X144.150 Y90.945 E0.01701
G1 X132.290 Y79.084 E0.53042
G1 X131.752 Y79.084 E0.01701
G1 X143.612 Y90.945 E0.53042
G1 X143.074 Y90.945 E0.01701
G1 X131.214 Y79.084 E0.53042
G1 X130.676 Y79.084 E0.01701
G1 X142.536 Y90.945 E0.53042
G1 X141.999 Y90.945 E0.01701
G1 X130.138 Y79.084 E0.53042
G1 X129.600 Y79.084 E0.01701
G1 X141.461 Y90.945 E0.53042
G1 X140.923 Y90.945 E0.01701
G1 X129.063 Y79.084 E0.53042
G1 X128.525 Y79.084 E0.01701
G1 X140.385 Y90.945 E0.53042
G1 X139.847 Y90.945 E0.01701
G1 X127.987 Y79.084 E0.53042
G1 X127.449 Y79.084 E0.01701
G1 X139.309 Y90.945 E0.53042
G1 X138.771 Y90.945 E0.01701
G1 X126.911 Y79.084 E0.53042
G1 X126.373 Y79.084 E0.01701
G1 X138.234 Y90.945 E0.53042
G1 X137.696 Y90.945 E0.01701
G1 X125.835 Y79.084 E0.53042
G1 X125.298 Y79.084 E0.01701
G1 X137.158 Y90.945 E0.53042
G1 X136.620 Y90.945 E0.01701
G1 X124.760 Y79.084 E0.53042
G1 X124.222 Y79.084 E0.01701
G1 X136.082 Y90.945 E0.53042
G1 X135.544 Y90.945 E0.01701
G1 X123.684 Y79.084 E0.53042
G1 X123.146 Y79.084 E0.01701
G1 X135.006 Y90.945 E0.53042
G1 X134.469 Y90.945 E0.01701
G1 X122.608 Y79.084 E0.53042
G1 X122.071 Y79.084 E0.01701
G1 X133.931 Y90.945 E0.53042
G1 X133.393 Y90.945 E0.01701
G1 X121.533 Y79.084 E0.53042
G1 X120.995 Y79.084 E0.01701
G1 X132.855 Y90.945 E0.53042
G1 X132.317 Y90.945 E0.01701
G1 X120.457 Y79.084 E0.53042
G1 X119.919 Y79.084 E0.01701
G1 X131.779 Y90.945 E0.53042
G1 X131.241 Y90.945 E0.01701
G1 X119.381 Y79.084 E0.53042
G1 X118.843 Y79.084 E0.01701
G1 X130.704 Y90.945 E0.53042
G1 X130.166 Y90.945 E0.01701
G1 X118.306 Y79.084 E0.53042
G1 X117.768 Y79.084 E0.01701
G1 X129.628 Y90.945 E0.53042
G1 X129.090 Y90.945 E0.01701
G1 X117.230 Y79.084 E0.53042
G1 X116.692 Y79.084 E0.01701
G1 X128.552 Y90.945 E0.53042
G1 X128.014 Y90.945 E0.01701
G1 X116.154 Y79.084 E0.53042
G1 X115.616 Y79.084 E0.01701
G1 X127.477 Y90.945 E0.53042
G1 X126.939 Y90.945 E0.01701
G1 X115.078 Y79.084 E0.53042
M73 P1 R58
G1 X114.541 Y79.084 E0.01701
G1 X126.401 Y90.945 E0.53042
G1 X125.863 Y90.945 E0.01701
G1 X114.003 Y79.084 E0.53042
M73 P2 R58
M73 Q2 S59
G1 X113.465 Y79.084 E0.01701
G1 X125.325 Y90.945 E0.53042
G1 X124.787 Y90.945 E0.01701
G1 X112.927 Y79.084 E0.53042
G1 X112.389 Y79.084 E0.01701
G1 X124.249 Y90.945 E0.53042
G1 X123.712 Y90.945 E0.01701
G1 X111.851 Y79.084 E0.53042
G1 X111.313 Y79.084 E0.01701
G1 X123.174 Y90.945 E0.53042
G1 X122.636 Y90.945 E0.01701
G1 X110.776 Y79.084 E0.53042
G1 X110.238 Y79.084 E0.01701
G1 X122.098 Y90.945 E0.53042
G1 X121.560 Y90.945 E0.01701
G1 X109.700 Y79.084 E0.53042
G1 X109.162 Y79.084 E0.01701
G1 X121.022 Y90.945 E0.53042
G1 X120.484 Y90.945 E0.01701
G1 X108.624 Y79.084 E0.53042
G1 X108.086 Y79.084 E0.01701
G1 X119.947 Y90.945 E0.53042
G1 X119.409 Y90.945 E0.01701
G1 X107.548 Y79.084 E0.53042
G1 X107.011 Y79.084 E0.01701
G1 X118.871 Y90.945 E0.53042
G1 X118.333 Y90.945 E0.01701
G1 X106.473 Y79.084 E0.53042
G1 X105.935 Y79.084 E0.01701
G1 X117.795 Y90.945 E0.53042
G1 X117.257 Y90.945 E0.01701
G1 X105.397 Y79.084 E0.53042
G1 X104.859 Y79.084 E0.01701
G1 X116.719 Y90.945 E0.53042
G1 X116.182 Y90.945 E0.01701
G1 X104.321 Y79.084 E0.53042
G1 X103.783 Y79.084 E0.01701
G1 X115.644 Y90.945 E0.53042
G1 X115.106 Y90.945 E0.01701
G1 X103.381 Y79.220 E0.52435
G1 X103.381 Y79.758 E0.01701
G1 X114.568 Y90.945 E0.50030
G1 X114.030 Y90.945 E0.01701
G1 X103.381 Y80.296 E0.47625
G1 X103.381 Y80.834 E0.01701
G1 X113.492 Y90.945 E0.45219
G1 X112.954 Y90.945 E0.01701
G1 X103.381 Y81.371 E0.42814
G1 X103.381 Y81.909 E0.01701
G1 X112.417 Y90.945 E0.40408
G1 X111.879 Y90.945 E0.01701
G1 X103.381 Y82.447 E0.38003
M73 Q2 S58
G1 X103.381 Y82.985 E0.01701
G1 X111.341 Y90.945 E0.35597
G1 X110.803 Y90.945 E0.01701
G1 X103.381 Y83.523 E0.33192
G1 X103.381 Y84.061 E0.01701
G1 X110.265 Y90.945 E0.30787
G1 X109.727 Y90.945 E0.01701
G1 X103.381 Y84.599 E0.28381
G1 X103.381 Y85.136 E0.01701
G1 X109.189 Y90.945 E0.25976
G1 X108.652 Y90.945 E0.01701
G1 X103.381 Y85.674 E0.23570
G1 X103.381 Y86.212 E0.01701
G1 X108.114 Y90.945 E0.21165
G1 X107.576 Y90.945 E0.01701
G1 X103.381 Y86.750 E0.18759
G1 X103.381 Y87.288 E0.01701
G1 X107.038 Y90.945 E0.16354
G1 X106.500 Y90.945 E0.01701
G1 X103.381 Y87.826 E0.13949
G1 X103.381 Y88.364 E0.01701
G1 X105.962 Y90.945 E0.11543
G1 X105.425 Y90.945 E0.01701
G1 X103.381 Y88.901 E0.09138
G1 X103.381 Y89.439 E0.01701
G1 X104.887 Y90.945 E0.06732
G1 X104.349 Y90.945 E0.01701
G1 X103.381 Y89.977 E0.04327
G1 X103.381 Y90.515 E0.01701
G1 X103.981 Y91.114 E0.02680
; stop printing object tempTower-230-250-PETG.stl id:0 copy 0
;LAYER_CHANGE
;Z:0.4
;HEIGHT:0.2
;BEFORE_LAYER_CHANGE
G92 E0.0
;0.4
;LAYER:1
;WIPE_START
G1 F8640.000
G1 X103.381 Y90.515 E-0.19571
G1 X103.381 Y89.977 E-0.12419
G1 X104.349 Y90.945 E-0.31593
G1 X104.887 Y90.945 E-0.12419
G1 X103.381 Y89.439 E-0.49156
G1 X103.381 Y89.100 E-0.07841
;WIPE_END
G1 E-0.07000 F2100.000
G1 Z0.400 F10800.000
;AFTER_LAYER_CHANGE
;0.4
M104 S250 ; set temperature
M140 S90 ; set bed temperature
G1 Z0.600
G1 X100.072 Y92.811
G1 Z0.400
G1 E1.40000 F2100.000
;TYPE:Skirt
;WIDTH:0.42
G1 F3000.000
G1 X99.934 Y92.035 E0.02473
G1 X99.943 Y77.813 E0.44591
G1 X100.095 Y77.155 E0.02119
G1 X100.429 Y76.563 E0.02130
G1 X100.914 Y76.092 E0.02119
G1 X101.515 Y75.775 E0.02130
G1 X102.303 Y75.637 E0.02508
G1 X148.315 Y75.637 E1.44269
G1 X149.203 Y75.811 E0.02837
G1 X149.959 Y76.301 E0.02825
G1 X150.479 Y77.038 E0.02825
G1 X150.686 Y77.914 E0.02825
G1 X150.678 Y92.243 E0.44925
G1 X150.519 Y92.896 E0.02107
G1 X150.184 Y93.478 E0.02107
G1 X149.700 Y93.944 E0.02107
G1 X149.108 Y94.254 E0.02095
G1 X148.320 Y94.392 E0.02508
G1 X102.243 Y94.391 E1.44472
G1 X101.545 Y94.264 E0.02225
G1 X100.911 Y93.936 E0.02237
G1 X100.407 Y93.437 E0.02225
G1 X100.100 Y92.864 E0.02037
; printing object tempTower-230-250-PETG.stl id:0 copy 0
;WIPE_START
G1 F8640.000
G1 X99.934 Y92.035 E-0.19531
G1 X99.937 Y87.120 E-1.13469
;WIPE_END
G1 E-0.07000 F2100.000
G1 Z0.600 F10800.000
G1 X102.944 Y91.382
G1 Z0.400
G1 E1.40000 F2100.000
M204 S800
;TYPE:Perimeter
;WIDTH:0.45
G1 F3600.000
G1 X102.944 Y78.647 E0.43109
G1 X147.679 Y78.647 E1.51426
G1 X147.679 Y91.382 E0.43109
G1 X103.004 Y91.382 E1.51222
M204 S1000
G1 X102.536 Y91.789 F10800.000
M204 S800
;TYPE:External perimeter
G1 F2100.000
G1 X102.536 Y78.239 E0.45865
G1 X148.086 Y78.239 E1.54181
G1 X148.086 Y91.789 E0.45865
G1 X102.596 Y91.789 E1.53978
M204 S1000
M73 P3 R58
M73 Q3 S58
G1 X102.702 Y91.425 F10800.000
;WIPE_START
G1 F8640.000
G1 X102.571 Y86.030 E-1.33000
;WIPE_END
G1 E-0.07000 F2100.000
G1 Z0.600 F10800.000
G1 X146.733 Y91.260
G1 Z0.400
G1 E1.40000 F2100.000
;TYPE:Solid infill
;WIDTH:0.450503
G1 F5888.371
G1 X147.374 Y90.620 E0.03071
G1 X147.374 Y90.043 E0.01953
G1 X146.340 Y91.077 E0.04956
G1 X145.764 Y91.077 E0.01953
G1 X147.374 Y89.467 E0.07719
G1 X147.374 Y88.890 E0.01953
G1 X145.187 Y91.077 E0.10481
G1 X144.611 Y91.077 E0.01953
G1 X147.374 Y88.314 E0.13244
G1 X147.374 Y87.737 E0.01953
G1 X144.034 Y91.077 E0.16007
G1 X143.458 Y91.077 E0.01953
G1 X147.374 Y87.161 E0.18769
G1 X147.374 Y86.585 E0.01953
G1 X142.882 Y91.077 E0.21532
G1 X142.305 Y91.077 E0.01953
G1 X147.374 Y86.008 E0.24294
G1 X147.374 Y85.432 E0.01953
G1 X141.729 Y91.077 E0.27057
G1 X141.152 Y91.077 E0.01953
G1 X147.374 Y84.855 E0.29820
G1 X147.374 Y84.279 E0.01953
G1 X140.576 Y91.077 E0.32582
G1 X140.000 Y91.077 E0.01953
G1 X147.374 Y83.703 E0.35345
G1 X147.374 Y83.126 E0.01953
G1 X139.423 Y91.077 E0.38108
G1 X138.847 Y91.077 E0.01953
G1 X147.374 Y82.550 E0.40870
G1 X147.374 Y81.973 E0.01953
G1 X138.270 Y91.077 E0.43633
G1 X137.694 Y91.077 E0.01953
G1 X147.374 Y81.397 E0.46396
G1 X147.374 Y80.821 E0.01953
G1 X137.117 Y91.077 E0.49158
G1 X136.541 Y91.077 E0.01953
G1 X147.374 Y80.244 E0.51921
G1 X147.374 Y79.668 E0.01953
G1 X135.965 Y91.077 E0.54684
G1 X135.388 Y91.077 E0.01953
G1 X147.374 Y79.091 E0.57446
G1 X147.374 Y78.952 E0.00473
G1 X146.937 Y78.952 E0.01481
G1 X134.812 Y91.077 E0.58115
G1 X134.235 Y91.077 E0.01953
G1 X146.361 Y78.952 E0.58115
G1 X145.784 Y78.952 E0.01953
G1 X133.659 Y91.077 E0.58115
G1 X133.083 Y91.077 E0.01953
G1 X145.208 Y78.952 E0.58115
G1 X144.631 Y78.952 E0.01953
G1 X132.506 Y91.077 E0.58115
G1 X131.930 Y91.077 E0.01953
G1 X144.055 Y78.952 E0.58115
G1 X143.479 Y78.952 E0.01953
G1 X131.353 Y91.077 E0.58115
G1 X130.777 Y91.077 E0.01953
G1 X142.902 Y78.952 E0.58115
G1 X142.326 Y78.952 E0.01953
G1 X130.201 Y91.077 E0.58115
G1 X129.624 Y91.077 E0.01953
G1 X141.749 Y78.952 E0.58115
G1 X141.173 Y78.952 E0.01953
G1 X129.048 Y91.077 E0.58115
G1 X128.471 Y91.077 E0.01953
G1 X140.597 Y78.952 E0.58115
G1 X140.020 Y78.952 E0.01953
G1 X127.895 Y91.077 E0.58115
G1 X127.319 Y91.077 E0.01953
G1 X139.444 Y78.952 E0.58115
G1 X138.867 Y78.952 E0.01953
G1 X126.742 Y91.077 E0.58115
G1 X126.166 Y91.077 E0.01953
G1 X138.291 Y78.952 E0.58115
G1 X137.715 Y78.952 E0.01953
G1 X125.589 Y91.077 E0.58115
G1 X125.013 Y91.077 E0.01953
G1 X137.138 Y78.952 E0.58115
G1 X136.562 Y78.952 E0.01953
G1 X124.436 Y91.077 E0.58115
G1 X123.860 Y91.077 E0.01953
G1 X135.985 Y78.952 E0.58115
G1 X135.409 Y78.952 E0.01953
G1 X123.284 Y91.077 E0.58115
G1 X122.707 Y91.077 E0.01953
G1 X134.832 Y78.952 E0.58115
G1 X134.256 Y78.952 E0.01953
G1 X122.131 Y91.077 E0.58115
G1 X121.554 Y91.077 E0.01953
G1 X133.680 Y78.952 E0.58115
G1 X133.103 Y78.952 E0.01953
G1 X120.978 Y91.077 E0.58115
G1 X120.402 Y91.077 E0.01953
G1 X132.527 Y78.952 E0.58115
G1 X131.950 Y78.952 E0.01953
G1 X119.825 Y91.077 E0.58115
G1 X119.249 Y91.077 E0.01953
G1 X131.374 Y78.952 E0.58115
G1 X130.798 Y78.952 E0.01953
G1 X118.672 Y91.077 E0.58115
G1 X118.096 Y91.077 E0.01953
G1 X130.221 Y78.952 E0.58115
G1 X129.645 Y78.952 E0.01953
G1 X117.520 Y91.077 E0.58115
G1 X116.943 Y91.077 E0.01953
G1 X129.068 Y78.952 E0.58115
G1 X128.492 Y78.952 E0.01953
G1 X116.367 Y91.077 E0.58115
G1 X115.790 Y91.077 E0.01953
G1 X127.916 Y78.952 E0.58115
G1 X127.339 Y78.952 E0.01953
G1 X115.214 Y91.077 E0.58115
G1 X114.638 Y91.077 E0.01953
G1 X126.763 Y78.952 E0.58115
G1 X126.186 Y78.952 E0.01953
G1 X114.061 Y91.077 E0.58115
G1 X113.485 Y91.077 E0.01953
G1 X125.610 Y78.952 E0.58115
G1 X125.034 Y78.952 E0.01953
G1 X112.908 Y91.077 E0.58115
G1 X112.332 Y91.077 E0.01953
G1 X124.457 Y78.952 E0.58115
G1 X123.881 Y78.952 E0.01953
G1 X111.755 Y91.077 E0.58115
G1 X111.179 Y91.077 E0.01953
G1 X123.304 Y78.952 E0.58115
G1 X122.728 Y78.952 E0.01953
G1 X110.603 Y91.077 E0.58115
G1 X110.026 Y91.077 E0.01953
G1 X122.151 Y78.952 E0.58115
G1 X121.575 Y78.952 E0.01953
G1 X109.450 Y91.077 E0.58115
G1 X108.873 Y91.077 E0.01953
G1 X120.999 Y78.952 E0.58115
G1 X120.422 Y78.952 E0.01953
G1 X108.297 Y91.077 E0.58115
G1 X107.721 Y91.077 E0.01953
G1 X119.846 Y78.952 E0.58115
G1 X119.269 Y78.952 E0.01953
G1 X107.144 Y91.077 E0.58115
G1 X106.568 Y91.077 E0.01953
G1 X118.693 Y78.952 E0.58115
G1 X118.117 Y78.952 E0.01953
G1 X105.991 Y91.077 E0.58115
G1 X105.415 Y91.077 E0.01953
G1 X117.540 Y78.952 E0.58115
G1 X116.964 Y78.952 E0.01953
G1 X104.839 Y91.077 E0.58115
G1 X104.262 Y91.077 E0.01953
G1 X116.387 Y78.952 E0.58115
G1 X115.811 Y78.952 E0.01953
G1 X103.686 Y91.077 E0.58115
G1 X103.249 Y91.077 E0.01481
G1 X103.249 Y90.938 E0.00473
G1 X115.235 Y78.952 E0.57446
G1 X114.658 Y78.952 E0.01953
G1 X103.249 Y90.361 E0.54683
M73 P3 R57
G1 X103.249 Y89.785 E0.01953
